!!!OTL: Das schwarzbraune Bier (2-52), S. 140f
!!!id: K1134
**kern
*clefG2
*k[f#]
*G:
{4d
=1
4g
8g
8g
4g
4g
=2
4g
8f#
8e
4d}
=3
{4d
=4
4e
8e
8e
4g
8f#
8e
=5
4d
8d
8c
4B}
=6
{4d
=7
2g
2a
=8
2b}
4r
=9
{8g
8a
=10
4b
4b
4b
4dd
=11
8dd
8cc
8cc
8b
4a}
=12
{8.a
16g
=13
8.f#
16e
8.e
16e
4d
8.a
16g
=14
8.f#
16e
8.e
16e
4d}
=15
{8d
8d
=16
4d
4b
4b
8d
8d
=17
4d
4b
4b}
=18
{8b
8b
=19
4.b
8a
4cc
4f#
=20
2g}
4r
==
*-
!!!minrhy: 16
!!!meters: 4/4 ]  ZZ[7
!!!cut: Das schwarzbraune Bier (2-52), S. 140f
!!!reg: Luxemburg
!!!trd: KINTZELE, Guillaume: An der Ucht, Bd. 2, Luxemburg 1927
!!!rhy1: X__  X__X_X_X__X__  X__X_X_X__   (x2)
!!!rhy2: X__  X__X_X_X__X_X_  X__X_X_X__
!!!key: K1134  16  G 4/4 ]  ZZ[7
!!!mod: HEPTATONIK IONISCH]  AMBITUS[10b
!!!kad: -5-332-531
!!!akz: 111-5_-61-5-3_123_3352_-7-5-7-5_-53-53_341_
!!!fot: 'a__b__c__d__e__f__g__
!!!for: 'a__b__c__d__e__f__g__
!!!fok: '^__^d_/__^a_\__/__\__
!! PHRAS[AUFTAKTIG]
!!!fkt: Scherz-, Spottlied
!!!bem: in der Quelle mit einer 2. Stimme versehen
!! KINTZELE
!! PR[30] 2K[8] 2G[17] 3K[8] 3G[0] 4A[2] 4Ü[0] 5A[0] 6K[0] 6G[0]
!! 7K[0] 7G[0] 8A[0] MEHR[0] SI[34] ABS[53] SR[25] SP[9]
!! ST[18] 2k[11] 2g[21] 3k[4] 3g[0] 4d[0] 4ü[0] 5d[0] 6k[0] 6g[0]
!! 7k[0] 7g[0] 8d[0] mehr[0] si[36] dm[-2] sr[32] sp[4]
!! 1F[39] 2F[45] 3F[5] 4F[0] LF[0] 2P[7] 3P[4] 4P[0] TRI[0] DF[5] AB[56]
!! TF[0] U3K[0] U3[0] U4[0] U4Ü[0] U5[2] U6K[0] U6[0] U7K[0] U7[2]
!! N1[11] N2K[0] N2[20] N3K[0] N3[28] N4[19] N4Ü[0] N5[17] N6K[0] N6[2]
!!!n7k: 0] N7[0] O1[0] O2K[0] O2[0] O3K[0] O3[0] HÖ[0
